!!!OTL: Jahreszeiten und Liebe. / B. Niederlaendische Lesart.
!!!ARE: Europa, Mitteleuropa, Deutschland
!!!TXL: @@DUM
!!!SCT: A0151B
!!!YEM: Copyright 1995, estate of Helmut Schaffrath.
**kern	**text
*ICvox	*
*Ivox	*
!! Mixed meters:  4/2; 6/2
*M4/2	*
*clefC3	*
*k[]	*
*a:aeo	*
=1	=1
!LO:TX:a:t=äol.	!
2ryy	.
{2A	Den
2A	win-
2A	-ter
=2	=2
2c	is
2c	een
2B	on-
2B	-wert
=3	=3
1A	gast,
2r}	.
{2A	dat
=4	=4
2.d	merk
4c	ic
2B	aen
1c	dem
=5-	=5-
.	.
*lig	*
1B	da-
2A	.
*Xlig	*
=6	=6
1B	-ghe,
2r}	.
{2B	ic
=7	=7
2B	had
2B	een
2d	boelken
2d	.
=8	=8
*lig	*
2d	eende
1c	dat
*Xlig	*
2B	was
=9	=9
*lig	*
4A	waer
4G	.
4A	.
4B	.
2c/	.
*Xlig	*
2B	int
=10	=10
*M6/2	*
2A	o-
2A	-pen-
1G;}	-baer:
{2r	.
2G	sie
=11	=11
1A	en_was
2B	mi
*lig	*
2.c	niet
4d	.
*Xlig	*
2e	ghe-
=12	=12
*M4/2	*
*lig	*
2.d	-trou-
4c	.
*Xlig	*
2B	-we,
2A	ghe-
=13	=13
1G#i	-trou-
1A/ll}	-we.
==	==
!!!GTL: Liebeslieder
!!!AGN: Romanze, Ballade, Lied
!! Souterliedekens 1540 ad Ps. 110
!!!ONB: ESAC (Essen Associative Code) Database: ALTDEU
!!!AMT: simple quadruple
!!!AIN: vox
!!!EED: Helmut Schaffrath
!!!EEV: 1.0
!!!RDF**kern: i = editorial accidental
!!!RDF**kern: l = terminal long
!!!AMD: Aeolian
!!!URL-scan: https://rosdok.uni-rostock.de/mcrviewer/recordIdentifier/rosdok_ppn738218359/iview2/phys_0320.iview2?x=-2231.2783251231526&y=-1442.08177342196&scale=0.2314709236031927&rotation=0&layout=singlePageLayout&logicalDiv=log_0009
!!!ENC: Anna Maria Matuszewska
!!!EEV: 2024/26/02
*-	*-
